icons/va.svg

<?xml version="1.0" ?>
<svg xmlns="http://www.w3.org/2000/svg" xmlns:ev="http://www.w3.org/2001/xml-events" xmlns:xlink="http://www.w3.org/1999/xlink" baseProfile="full" height="457px" version="1.1" viewBox="-1019.9826984408926 446.80536845319364 12284.330404386274 9347.193486953074" width="600px">
	<defs/>
	<path d="M 7006.0,8739.0 C 6638.0,8592.0 6336.0,8469.0 6335.0,8468.0 C 6333.0,8466.0 6341.0,8418.0 6351.0,8360.0 C 6362.0,8303.0 6367.0,8253.0 6362.0,8249.0 C 6358.0,8246.0 6261.0,8213.0 6146.0,8176.0 L 5938.0,8109.0 L 5916.0,8129.0 C 5896.0,8148.0 5881.0,8149.0 5655.0,8151.0 L 5415.0,8152.0 L 5173.0,8044.0 C 4947.0,7943.0 4930.0,7933.0 4930.0,7909.0 C 4930.0,7895.0 4924.0,7877.0 4918.0,7868.0 C 4906.0,7853.0 4493.0,7713.0 4486.0,7721.0 C 4484.0,7723.0 4468.0,7769.0 4451.0,7822.0 C 4420.0,7916.0 4418.0,7919.0 4392.0,7914.0 C 4377.0,7912.0 4222.0,7892.0 4047.0,7871.0 C 3872.0,7849.0 3727.0,7830.0 3725.0,7828.0 C 3723.0,7827.0 3683.0,7702.0 3636.0,7551.0 C 3566.0,7324.0 3553.0,7275.0 3565.0,7266.0 C 3572.0,7260.0 3610.0,7231.0 3649.0,7201.0 C 3717.0,7148.0 3719.0,7146.0 3702.0,7125.0 C 3693.0,7114.0 3512.0,6923.0 3300.0,6701.0 L 2915.0,6298.0 L 2863.0,6356.0 L 2810.0,6413.0 L 2665.0,6345.0 C 2548.0,6290.0 2520.0,6273.0 2519.0,6256.0 C 2519.0,6244.0 2511.0,6162.0 2502.0,6072.0 C 2492.0,5982.0 2487.0,5907.0 2490.0,5905.0 C 2493.0,5904.0 2521.0,5897.0 2553.0,5890.0 C 2587.0,5882.0 2610.0,5872.0 2610.0,5864.0 C 2610.0,5845.0 2320.0,4866.0 2312.0,4858.0 C 2308.0,4855.0 2258.0,4862.0 2200.0,4875.0 C 2097.0,4899.0 2095.0,4899.0 2080.0,4880.0 C 1951.0,4717.0 1932.0,4698.0 1799.0,4603.0 L 1664.0,4506.0 L 1598.0,4387.0 L 1532.0,4267.0 L 1594.0,4217.0 C 1627.0,4190.0 1661.0,4161.0 1669.0,4155.0 C 1680.0,4144.0 1622.0,4076.0 1335.0,3763.0 C 1144.0,3555.0 973.0,3370.0 955.0,3351.0 L 922.0,3318.0 L 834.0,3384.0 C 786.0,3421.0 743.0,3449.0 739.0,3448.0 C 703.0,3434.0 3.0,3003.0 8.0,2998.0 C 18.0,2988.0 673.0,2680.0 684.0,2680.0 C 689.0,2680.0 725.0,2709.0 765.0,2745.0 L 837.0,2809.0 L 1301.0,2425.0 C 1556.0,2213.0 1769.0,2034.0 1774.0,2026.0 C 1781.0,2016.0 1774.0,1998.0 1752.0,1964.0 C 1726.0,1923.0 1723.0,1913.0 1734.0,1900.0 C 1741.0,1892.0 1779.0,1846.0 1819.0,1798.0 C 1862.0,1745.0 1898.0,1710.0 1909.0,1710.0 C 1925.0,1710.0 2421.0,1800.0 2486.0,1815.0 C 2505.0,1819.0 2509.0,1832.0 2521.0,1912.0 L 2535.0,2005.0 L 2570.0,2004.0 C 2589.0,2003.0 2946.0,1976.0 3362.0,1944.0 L 4119.0,1885.0 L 4122.0,1776.0 L 4125.0,1667.0 L 4555.0,1523.0 L 4985.0,1380.0 L 5360.0,1356.0 C 5566.0,1343.0 5738.0,1334.0 5742.0,1336.0 C 5745.0,1338.0 5751.0,1374.0 5755.0,1415.0 C 5760.0,1464.0 5767.0,1490.0 5775.0,1490.0 C 5781.0,1490.0 6086.0,1431.0 6451.0,1360.0 C 6816.0,1288.0 7118.0,1230.0 7122.0,1230.0 C 7126.0,1230.0 7152.0,1269.0 7180.0,1316.0 L 7232.0,1401.0 L 7967.0,1394.0 L 8701.0,1387.0 L 8696.0,1421.0 C 8682.0,1502.0 8639.0,1823.0 8631.0,1905.0 C 8624.0,1976.0 8613.0,2017.0 8580.0,2095.0 L 8538.0,2195.0 L 8533.0,2375.0 C 8528.0,2552.0 8540.0,2753.0 8557.0,2784.0 C 8564.0,2797.0 8588.0,2766.0 8665.0,2648.0 C 8818.0,2412.0 8893.0,2351.0 9154.0,2249.0 C 9239.0,2216.0 9271.0,2209.0 9355.0,2204.0 C 9410.0,2201.0 9498.0,2203.0 9551.0,2208.0 C 9639.0,2218.0 9657.0,2224.0 9766.0,2278.0 C 9917.0,2354.0 9975.0,2402.0 10060.0,2520.0 C 10208.0,2728.0 10224.0,2786.0 10226.0,3145.0 C 10226.0,3288.0 10230.0,3459.0 10234.0,3525.0 C 10244.0,3689.0 10222.0,3869.0 10180.0,3978.0 C 10134.0,4097.0 10045.0,4238.0 9975.0,4302.0 C 9942.0,4332.0 9872.0,4383.0 9820.0,4415.0 C 9768.0,4447.0 9724.0,4474.0 9722.0,4475.0 C 9720.0,4477.0 9706.0,5127.0 9690.0,5920.0 C 9674.0,6713.0 9660.0,7363.0 9658.0,7364.0 C 9656.0,7366.0 9286.0,7464.0 8835.0,7584.0 C 8384.0,7703.0 8015.0,7802.0 8014.0,7803.0 C 8012.0,7804.0 7941.0,8068.0 7855.0,8390.0 C 7673.0,9071.0 7690.0,9010.0 7682.0,9009.0 C 7678.0,9009.0 7374.0,8887.0 7006.0,8739.0" fill="pink"/>
</svg>

<?xml version="1.0" standalone="no"?>
<!DOCTYPE svg PUBLIC "-//W3C//DTD SVG 20010904//EN"
 "http://www.w3.org/TR/2001/REC-SVG-20010904/DTD/svg10.dtd">
<svg version="1.0" xmlns="http://www.w3.org/2000/svg"
 width="1024.000000pt" height="1024.000000pt" viewBox="0 0 1024.000000 1024.000000"
 preserveAspectRatio="xMidYMid meet">
<metadata>
Created by potrace 1.10, written by Peter Selinger 2001-2011
</metadata>
<g transform="translate(0.000000,1024.000000) scale(0.100000,-0.100000)"
fill="#000000" stroke="none">
<path d="M7006 8739 c-368 -147 -670 -270 -671 -271 -2 -2 6 -50 16 -108 11
-57 16 -107 11 -111 -4 -3 -101 -36 -216 -73 l-208 -67 -22 20 c-20 19 -35 20
-261 22 l-240 1 -242 -108 c-226 -101 -243 -111 -243 -135 0 -14 -6 -32 -12
-41 -12 -15 -425 -155 -432 -147 -2 2 -18 48 -35 101 -31 94 -33 97 -59 92
-15 -2 -170 -22 -345 -43 -175 -22 -320 -41 -322 -43 -2 -1 -42 -126 -89 -277
-70 -227 -83 -276 -71 -285 7 -6 45 -35 84 -65 68 -53 70 -55 53 -76 -9 -11
-190 -202 -402 -424 l-385 -403 -52 58 -53 57 -145 -68 c-117 -55 -145 -72
-146 -89 0 -12 -8 -94 -17 -184 -10 -90 -15 -165 -12 -167 3 -1 31 -8 63 -15
34 -8 57 -18 57 -26 0 -19 -290 -998 -298 -1006 -4 -3 -54 4 -112 17 -103 24
-105 24 -120 5 -129 -163 -148 -182 -281 -277 l-135 -97 -66 -119 -66 -120 62
-50 c33 -27 67 -56 75 -62 11 -11 -47 -79 -334 -392 -191 -208 -362 -393 -380
-412 l-33 -33 -88 66 c-48 37 -91 65 -95 64 -36 -14 -736 -445 -731 -450 10
-10 665 -318 676 -318 5 0 41 29 81 65 l72 64 464 -384 c255 -212 468 -391
473 -399 7 -10 0 -28 -22 -62 -26 -41 -29 -51 -18 -64 7 -8 45 -54 85 -102 43
-53 79 -88 90 -88 16 0 512 90 577 105 19 4 23 17 35 97 l14 93 35 -1 c19 -1
376 -28 792 -60 l757 -59 3 -109 3 -109 430 -144 430 -143 375 -24 c206 -13
378 -22 382 -20 3 2 9 38 13 79 5 49 12 75 20 75 6 0 311 -59 676 -130 365
-72 667 -130 671 -130 4 0 30 39 58 86 l52 85 735 -7 734 -7 -5 34 c-14 81
-57 402 -65 484 -7 71 -18 112 -51 190 l-42 100 -5 180 c-5 177 7 378 24 409
7 13 31 -18 108 -136 153 -236 228 -297 489 -399 85 -33 117 -40 201 -45 55
-3 143 -1 196 4 88 10 106 16 215 70 151 76 209 124 294 242 148 208 164 266
166 625 0 143 4 314 8 380 10 164 -12 344 -54 453 -46 119 -135 260 -205 324
-33 30 -103 81 -155 113 -52 32 -96 59 -98 60 -2 2 -16 652 -32 1445 -16 793
-30 1443 -32 1444 -2 2 -372 100 -823 220 -451 119 -820 218 -821 219 -2 1
-73 265 -159 587 -182 681 -165 620 -173 619 -4 0 -308 -122 -676 -270z"/>
</g>
</svg>
